X:1
T:Santo Solemne
C:
S:
M:C
L:1/4
Q:1/2=60
K:D
%
%
    "B7"F3 E/2F/2 | "Em"G3 z | "A"C D A G | "D"F2 z2 |
%%vskip 0
w: Sa-a-an-to Sa-a-a-an-to
    "Bm"B, B,/2-B,/2 G F | "Em"E2 E E | "F#7"F2 F2 | "Bm"F2 F2 |
w: San-to es el Se-ñor Dios del U-ni-ver-so
    "B7"F3 E/2F/2 | "Em"G3 D | "A"C D A G | "D"F2 F z |
w: Lle-nos es-tán el cie-lo y la tie-rra
    "Bm"B,2 G F | "Em"E2 E E | "F#7"F4 | "Bm"B,3 z |
w: De su-u Glo-ria Ho-sa-nna
    "B7"B A G F | "Em"G3 z | "A"A G F E | "D"F3 z |
w: Ho-o-sa-a-nna Ho-o-sa-a-nna
    "Bm"G F E D | "Em"E3 z | "F#7"F2 F2 | "Bm"F2 F z |
w: Ho-o-sa-a-nna En el cie-lo
    "B7"B A G F | "Em"G3 z | "A"A G F E | "D"F3 z |
w: Ho-o-sa-a-nna Ho-o-sa-a-nna
    "Bm"G F E D | "Em"E3 z | "F#7"F2 F2 | "Bm"B,2 B,2 |
w: Ho-o-sa-a-nna En el cie-lo
%